poi/svg/1122.svg

<?xml version="1.0" encoding="UTF-8" standalone="no"?>
<svg
   xmlns:dc="http://purl.org/dc/elements/1.1/"
   xmlns:cc="http://creativecommons.org/ns#"
   xmlns:rdf="http://www.w3.org/1999/02/22-rdf-syntax-ns#"
   xmlns:svg="http://www.w3.org/2000/svg"
   xmlns="http://www.w3.org/2000/svg"
   xmlns:sodipodi="http://sodipodi.sourceforge.net/DTD/sodipodi-0.dtd"
   xmlns:inkscape="http://www.inkscape.org/namespaces/inkscape"
   inkscape:version="1.0 (4035a4fb49, 2020-05-01)"
   sodipodi:docname="1122.svg"
   id="svg20"
   version="1.2"
   viewBox="0 0 42.519639 42.519639"
   height="14.999999mm"
   width="14.999999mm">
  <metadata
     id="metadata24">
    <rdf:RDF>
      <cc:Work
         rdf:about="">
        <dc:format>image/svg+xml</dc:format>
        <dc:type
           rdf:resource="http://purl.org/dc/dcmitype/StillImage" />
        <dc:title>Qt SVG Document</dc:title>
      </cc:Work>
    </rdf:RDF>
  </metadata>
  <sodipodi:namedview
     inkscape:current-layer="svg20"
     inkscape:window-maximized="0"
     inkscape:window-y="0"
     inkscape:window-x="0"
     inkscape:cy="28.346482"
     inkscape:cx="28.346482"
     inkscape:zoom="5.8410537"
     showgrid="false"
     id="namedview22"
     inkscape:window-height="480"
     inkscape:window-width="1034"
     inkscape:pageshadow="2"
     inkscape:pageopacity="0"
     guidetolerance="10"
     gridtolerance="10"
     objecttolerance="10"
     borderopacity="1"
     bordercolor="#666666"
     pagecolor="#ffffff" />
  <title
     id="title2">Qt SVG Document</title>
  <desc
     id="desc4">Generated with Qt</desc>
  <defs
     id="defs6" />
  <g
     transform="translate(5.25984,5.25984)"
     id="g18"
     stroke-linejoin="bevel"
     stroke-linecap="square"
     fill-rule="evenodd"
     stroke-width="1"
     stroke="#000000"
     fill="none">
    <g
       id="g10"
       font-style="normal"
       font-weight="400"
       font-size="7.8px"
       font-family="'MS Shell Dlg 2'"
       stroke="none"
       fill-opacity="1"
       fill="#3d97f1">
      <path
         id="path8"
         d="M 37.2598,16 C 37.2598,27.7415 27.7415,37.2598 16,37.2598 4.25851,37.2598 -5.25984,27.7415 -5.25984,16 -5.25984,4.25851 4.25851,-5.25984 16,-5.25984 27.7415,-5.25984 37.2598,4.25851 37.2598,16"
         fill-rule="evenodd"
         vector-effect="non-scaling-stroke" />
    </g>
    <g
       id="g14"
       font-style="normal"
       font-weight="400"
       font-size="7.8px"
       font-family="'MS Shell Dlg 2'"
       transform="translate(16,11.748)"
       stroke="none"
       fill-opacity="0.94902"
       fill="#ffffff">
      <path
         id="path12"
         d="m -6.9126,0.624512 h -3.5273 V -1.49609 h 9.30123 V 0.624512 H -4.51904 V 10.0938 H -6.9126 V 0.624512 M 3.3125,10.0938 -0.466797,-1.49609 H 2.01074 L 4.42529,7.30127 6.96582,-1.49609 H 9.44336 L 5.53809,10.0938 H 3.3125 M 14.1675,-5.69531 V 15.5317 H -15.0381 V -5.69531 H 14.1675 M 4.84521,14.7549 c 0.37793,0 0.5669,-0.196 0.5669,-0.5879 0,-0.126 -0.04899,-0.2555 -0.14697,-0.3884 C 5.16715,13.6456 5.02718,13.5791 4.84521,13.5791 H -5.75781 c -0.16797,0 -0.30795,0.0665 -0.41992,0.1995 -0.11198,0.1329 -0.16797,0.2624 -0.16797,0.3884 0,0.3919 0.19596,0.5879 0.58789,0.5879 H 4.84521 m 6.27779,0 c 0.308,0 0.462,-0.196 0.462,-0.5879 0,-0.126 -0.049,-0.2555 -0.147,-0.3884 -0.098,-0.133 -0.203,-0.1995 -0.315,-0.1995 -0.2099,0 -0.3604,0.0665 -0.4514,0.1995 -0.091,0.1329 -0.1364,0.2624 -0.1364,0.3884 0,0.3919 0.1959,0.5879 0.5878,0.5879 m 1.9737,-19.21144 h -27.022 V 12.4873 h 27.022 V -4.45654"
         fill-rule="evenodd"
         vector-effect="none" />
    </g>
    <g
       id="g16"
       font-style="normal"
       font-weight="400"
       font-size="7.8px"
       font-family="'MS Shell Dlg 2'"
       stroke="none"
       fill-opacity="1"
       fill="#3d97f1" />
  </g>
</svg>

<?xml version="1.0" encoding="UTF-8" standalone="no"?>
<svg width="11.2889mm" height="11.2889mm"
 viewBox="0 0 32 32"
 xmlns="http://www.w3.org/2000/svg" xmlns:xlink="http://www.w3.org/1999/xlink"  version="1.2" baseProfile="tiny">
<title>Qt SVG Document</title>
<desc>Generated with Qt</desc>
<defs>
</defs>
<g fill="none" stroke="black" stroke-width="1" fill-rule="evenodd" stroke-linecap="square" stroke-linejoin="bevel" >

<g fill="#3d97f1" fill-opacity="1" stroke="none" transform="matrix(1,0,0,1,0,0)"
font-family="MS Shell Dlg 2" font-size="7.8" font-weight="400" font-style="normal" 
>
<path vector-effect="non-scaling-stroke" fill-rule="evenodd" d="M37.2598,16 C37.2598,27.7415 27.7415,37.2598 16,37.2598 C4.25851,37.2598 -5.25984,27.7415 -5.25984,16 C-5.25984,4.25851 4.25851,-5.25984 16,-5.25984 C27.7415,-5.25984 37.2598,4.25851 37.2598,16 "/>
</g>

<g fill="#ffffff" fill-opacity="0.94902" stroke="none" transform="matrix(1,0,0,1,16,11.748)"
font-family="MS Shell Dlg 2" font-size="7.8" font-weight="400" font-style="normal" 
>
<path vector-effect="none" fill-rule="evenodd" d="M-6.9126,0.624512 L-10.4399,0.624512 L-10.4399,-1.49609 L-1.13867,-1.49609 L-1.13867,0.624512 L-4.51904,0.624512 L-4.51904,10.0938 L-6.9126,10.0938 L-6.9126,0.624512 M3.3125,10.0938 L-0.466797,-1.49609 L2.01074,-1.49609 L4.42529,7.30127 L6.96582,-1.49609 L9.44336,-1.49609 L5.53809,10.0938 L3.3125,10.0938 M14.1675,-5.69531 L14.1675,15.5317 L-15.0381,15.5317 L-15.0381,-5.69531 L14.1675,-5.69531 M4.84521,14.7549 C5.22314,14.7549 5.41211,14.5589 5.41211,14.167 C5.41211,14.041 5.36312,13.9115 5.26514,13.7786 C5.16715,13.6456 5.02718,13.5791 4.84521,13.5791 L-5.75781,13.5791 C-5.92578,13.5791 -6.06576,13.6456 -6.17773,13.7786 C-6.28971,13.9115 -6.3457,14.041 -6.3457,14.167 C-6.3457,14.5589 -6.14974,14.7549 -5.75781,14.7549 L4.84521,14.7549 M11.123,14.7549 C11.431,14.7549 11.585,14.5589 11.585,14.167 C11.585,14.041 11.536,13.9115 11.438,13.7786 C11.34,13.6456 11.235,13.5791 11.123,13.5791 C10.9131,13.5791 10.7626,13.6456 10.6716,13.7786 C10.5806,13.9115 10.5352,14.041 10.5352,14.167 C10.5352,14.5589 10.7311,14.7549 11.123,14.7549 M13.0967,-4.45654 L-13.9253,-4.45654 L-13.9253,12.4873 L13.0967,12.4873 L13.0967,-4.45654"/>
</g>

<g fill="#3d97f1" fill-opacity="1" stroke="none" transform="matrix(1,0,0,1,0,0)"
font-family="MS Shell Dlg 2" font-size="7.8" font-weight="400" font-style="normal" 
>
</g>
</g>
</svg>
